icons/card.svg

<svg xmlns="http://www.w3.org/2000/svg" width="96" height="96"><path d="M84 32v-8H12v8h72zm0 16v24H12V48h72zM12 16h72c2.1 0 4.2.8 5.7 2.3 1.5 1.5 2.3 3.6 2.3 5.7v48c0 2.1-.8 4.2-2.3 5.7-1.5 1.5-3.6 2.3-5.7 2.3H12c-2.1 0-4.2-.8-5.7-2.3C4.8 76.2 4 74.1 4 72V24c0-2.1.8-4.2 2.3-5.7C7.8 16.8 9.9 16 12 16z" fill-rule="evenodd" fill="#454545"/></svg>

<?xml version="1.0" standalone="no"?><!-- Generator: Gravit.io --><svg xmlns="http://www.w3.org/2000/svg" xmlns:xlink="http://www.w3.org/1999/xlink" width="96" height="96"><path d=" M 84 32 L 84 24 L 12 24 L 12 24 L 12 32 L 16 32 L 80 32 L 84 32 Z  M 84 48 L 84 72 L 12 72 L 12 48 L 16 48 L 80 48 L 84 48 Z  M 12 16 L 84 16 C 86.1 16 88.2 16.8 89.7 18.3 C 91.2 19.8 92 21.9 92 24 L 92 72 C 92 74.1 91.2 76.2 89.7 77.7 C 88.2 79.2 86.1 80 84 80 L 12 80 C 9.9 80 7.8 79.2 6.3 77.7 C 4.8 76.2 4 74.1 4 72 L 4 24 C 4 21.9 4.8 19.8 6.3 18.3 C 7.8 16.8 9.9 16 12 16 L 12 16 Z " fill-rule="evenodd" fill="#454545" stroke="none"/><mask id="_mask_R3opt6lA95OawIRxUN14ZdII0VKmlixz"><path d=" M 84 32 L 84 24 L 12 24 L 12 24 L 12 32 L 16 32 L 80 32 L 84 32 Z  M 84 48 L 84 72 L 12 72 L 12 48 L 16 48 L 80 48 L 84 48 Z  M 12 16 L 84 16 C 86.1 16 88.2 16.8 89.7 18.3 C 91.2 19.8 92 21.9 92 24 L 92 72 C 92 74.1 91.2 76.2 89.7 77.7 C 88.2 79.2 86.1 80 84 80 L 12 80 C 9.9 80 7.8 79.2 6.3 77.7 C 4.8 76.2 4 74.1 4 72 L 4 24 C 4 21.9 4.8 19.8 6.3 18.3 C 7.8 16.8 9.9 16 12 16 L 12 16 Z " fill-rule="evenodd" fill="white" stroke="none"/></mask><path d=" M 84 32 L 84 24 L 12 24 L 12 24 L 12 32 L 16 32 L 80 32 L 84 32 Z  M 84 48 L 84 72 L 12 72 L 12 48 L 16 48 L 80 48 L 84 48 Z  M 12 16 L 84 16 C 86.1 16 88.2 16.8 89.7 18.3 C 91.2 19.8 92 21.9 92 24 L 92 72 C 92 74.1 91.2 76.2 89.7 77.7 C 88.2 79.2 86.1 80 84 80 L 12 80 C 9.9 80 7.8 79.2 6.3 77.7 C 4.8 76.2 4 74.1 4 72 L 4 24 C 4 21.9 4.8 19.8 6.3 18.3 C 7.8 16.8 9.9 16 12 16 L 12 16 Z " fill-rule="evenodd" fill="none" stroke="none" stroke-width="16" mask="url(#_mask_R3opt6lA95OawIRxUN14ZdII0VKmlixz)"/></svg>
